rospo-icon-theme-classic-common/64x64/places/folder-teal-recent.svg

<svg height="64" width="64" xmlns="http://www.w3.org/2000/svg"><rect height="32" opacity=".2" rx="2.5" width="50" x="7" y="24"/><path d="m7 44.5c0 1.385 1.115 2.5 2.5 2.5h45c1.385 0 2.5-1.115 2.5-2.5v-27c0-1.385-1.115-2.5-2.5-2.5h-25.5v-2.5c0-1.385-1.115-2.5-2.5-2.5h-17c-1.385 0-2.5 1.115-2.5 2.5" fill="#12806a"/><rect height="32" opacity=".2" rx="2.5" width="50" x="7" y="22"/><rect fill="#e4e4e4" height="20" rx="2.5" width="44" x="10" y="18"/><rect fill="#16a085" height="32" rx="2.5" width="50" x="7" y="23"/><path d="m9.5 10c-1.385 0-2.5 1.115-2.5 2.5v1c0-1.385 1.115-2.5 2.5-2.5h17c1.385 0 2.5 1.115 2.5 2.5v-1c0-1.385-1.115-2.5-2.5-2.5zm19.5 5v1h25.5c1.39 0 2.5 1.115 2.5 2.5v-1c0-1.385-1.11-2.5-2.5-2.5z" fill="#fff" opacity=".1"/><path d="m32 27a12 12 0 0 0 -12 12 12 12 0 0 0 12 12 12 12 0 0 0 12-12 12 12 0 0 0 -12-12zm0 3a9 9 0 0 1 9 9 9 9 0 0 1 -9 9 9 9 0 0 1 -9-9 9 9 0 0 1 9-9zm-2 3v8h8v-3h-5v-5z" fill="#08382e"/></svg>

<svg xmlns="http://www.w3.org/2000/svg" width="64" height="64" version="1.1">
 <rect style="opacity:0.2" width="50" height="32" x="7" y="24" rx="2.5" ry="2.5"/>
 <path style="fill:#12806a" d="M 7,44.5 C 7,45.885 8.115,47 9.5,47 H 54.5 C 55.885,47 57,45.885 57,44.5 V 17.5 C 57,16.115 55.885,15 54.5,15 H 29 V 12.5 C 29,11.115 27.885,10 26.5,10 H 9.5 C 8.115,10 7,11.115 7,12.5"/>
 <rect style="opacity:0.2" width="50" height="32" x="7" y="22" rx="2.5" ry="2.5"/>
 <rect style="fill:#dcdcdc" width="44" height="20" x="10" y="18" rx="2.5" ry="2.5"/>
 <rect style="fill:#16a085" width="50" height="32" x="7" y="23" rx="2.5" ry="2.5"/>
 <path style="opacity:0.1;fill:#ffffff" d="M 9.5,10 C 8.115,10 7,11.115 7,12.5 V 13.5 C 7,12.115 8.115,11 9.5,11 H 26.5 C 27.885,11 29,12.115 29,13.5 V 12.5 C 29,11.115 27.885,10 26.5,10 Z M 29,15 V 16 H 54.5 C 55.89,16 57,17.115 57,18.5 V 17.5 C 57,16.115 55.89,15 54.5,15 Z"/>
 <path style="fill:#08382e" d="M 32 27 A 12 12 0 0 0 20 39 A 12 12 0 0 0 32 51 A 12 12 0 0 0 44 39 A 12 12 0 0 0 32 27 z M 32 30 A 9 9 0 0 1 41 39 A 9 9 0 0 1 32 48 A 9 9 0 0 1 23 39 A 9 9 0 0 1 32 30 z M 30 33 L 30 41 L 38 41 L 38 38 L 33 38 L 33 33 L 30 33 z"/>
</svg>
